X: 41878
T: Vladimir's Steamboat
R: reel
M: 4/4
K: Dmixolydian
|:DFGA GFDF|GAGF DCA,C|DFGA GF(D2|D)CB,C DCA,2|
DFGA GFDF|GAcd cAGc|AGFG AGFD|A,2 A,C D4:|
d3d d2d2|dAcd edcB|ABAG FGAB|cAdc A2Ac|
d2Ac d2d2|dAcd edcB|ABAG FGAB|AFGF D2Ac|
d3d d2d2|dAcd edcB|ABAG FGAB|cAdc A2Ac|
dedc Acde|dAcd edcB|ABAG FGAB|AFGE D2A2||

